icons/House_3.svg

<svg width="24" height="24" viewBox="0 0 24 24" fill="none" xmlns="http://www.w3.org/2000/svg">
<path fill-rule="evenodd" clip-rule="evenodd" d="M5.74994,10.3106v9.6894c0,0.138 0.11193,0.25 0.25,0.25h2.75v-5.25c0,-0.9665 0.7835,-1.75 1.74996,-1.75h3c0.9665,0 1.75,0.7835 1.75,1.75v5.25h2.75c0.1381,0 0.25,-0.112 0.25,-0.25v-9.6894l-6.0732,-6.07319c-0.0976,-0.09763 -0.2559,-0.09763 -0.3535,0zM20.4696,12.5303l-0.7197,-0.7197v8.1894c0,0.0849 -0.006,0.1683 -0.0177,0.25h1.2678c0.4142,0 0.75,0.3358 0.75,0.75c0,0.4142 -0.3358,0.75 -0.75,0.75h-18.00004c-0.41421,0 -0.75,-0.3358 -0.75,-0.75c0,-0.4142 0.33579,-0.75 0.75,-0.75h1.26771c-0.01169,-0.0817 -0.01773,-0.1651 -0.01773,-0.25v-8.1894l-0.71967,0.7197c-0.29289,0.2929 -0.76777,0.2929 -1.06066,0c-0.29289,-0.2929 -0.29289,-0.7678 0,-1.0607l1.99955,-1.99951l0.0009,-0.0009l6.29244,-6.29244c0.6834,-0.68342 1.7915,-0.68342 2.4749,0l8.2929,8.29285c0.2929,0.2929 0.2929,0.7678 0,1.0607c-0.2929,0.2929 -0.7678,0.2929 -1.0607,0zM13.4999,14.75h-3c-0.138,0 -0.25,0.1119 -0.25,0.25v5.25h3.5v-5.25c0,-0.1381 -0.1119,-0.25 -0.25,-0.25z" fill="#002B51"/>
</svg>

<svg width="24" height="24" viewBox="0 0 24 24" fill="none" xmlns="http://www.w3.org/2000/svg">
<path fill-rule="evenodd" clip-rule="evenodd" d="M11.8232 4.23741C11.9208 4.13978 12.0791 4.13978 12.1767 4.23741L18.2499 10.3106V20C18.2499 20.138 18.138 20.25 17.9999 20.25H15.2499V15C15.2499 14.0335 14.4664 13.25 13.4999 13.25H10.4999C9.53344 13.25 8.74994 14.0335 8.74994 15V20.25H5.99994C5.86187 20.25 5.74994 20.138 5.74994 20V10.3106L11.8232 4.23741ZM20.4696 12.5303L19.7499 11.8106V20C19.7499 20.0849 19.7439 20.1683 19.7322 20.25H21C21.4142 20.25 21.75 20.5858 21.75 21C21.75 21.4142 21.4142 21.75 21 21.75H2.99996C2.58575 21.75 2.24996 21.4142 2.24996 21C2.24996 20.5858 2.58575 20.25 2.99996 20.25H4.26767C4.25598 20.1683 4.24994 20.0849 4.24994 20V11.8106L3.53027 12.5303C3.23738 12.8232 2.7625 12.8232 2.46961 12.5303C2.17672 12.2374 2.17672 11.7625 2.46961 11.4696L4.46916 9.47009L4.47006 9.46919L10.7625 3.17675C11.4459 2.49333 12.554 2.49333 13.2374 3.17675L21.5303 11.4696C21.8232 11.7625 21.8232 12.2374 21.5303 12.5303C21.2374 12.8232 20.7625 12.8232 20.4696 12.5303ZM13.7499 15V20.25H10.2499V15C10.2499 14.8619 10.3619 14.75 10.4999 14.75H13.4999C13.638 14.75 13.7499 14.8619 13.7499 15Z" fill="#002B51"/>
</svg>
